packages/core/src/svgs/comp.svg

<svg width="24" height="24" viewBox="0 0 24 24" fill="none" xmlns="http://www.w3.org/2000/svg">
<g clip-path="url(#clip0_31_8575)">
<path d="M0 0H24V24H0V0Z" fill="#00D395"/>
<path d="M6.54943 15.8314C6.38167 15.7286 6.24309 15.5844 6.1469 15.4128C6.05071 15.2411 6.00014 15.0476 6 14.8509V12.6206C6 12.5349 6.02271 12.4526 6.06557 12.3793C6.09708 12.3249 6.13903 12.2773 6.189 12.2392C6.23898 12.2011 6.29599 12.1732 6.35676 12.1572C6.41753 12.1412 6.48087 12.1374 6.54313 12.1459C6.6054 12.1545 6.66536 12.1752 6.71957 12.207L11.949 15.1402C12.094 15.2244 12.2146 15.3451 12.2987 15.4903C12.3828 15.6354 12.4276 15.8 12.4286 15.9677V18.279C12.4286 18.3844 12.3947 18.4894 12.3403 18.5794C12.3011 18.6439 12.2495 18.7001 12.1885 18.7446C12.1275 18.7891 12.0584 18.8211 11.985 18.8388C11.9116 18.8566 11.8354 18.8596 11.7608 18.8478C11.6863 18.836 11.6148 18.8096 11.5504 18.7702L6.54857 15.8314H6.54943ZM14.0391 11.5959C14.3327 11.7682 14.5714 12.0823 14.5714 12.4239V17.1129C14.5714 17.2517 14.4394 17.3799 14.319 17.4472L13.3474 18.0819C13.3337 18.0896 13.3011 18.0956 13.2857 18.1003V15.4959C13.2857 15.159 13.1267 14.8466 12.8374 14.673L8.14286 11.9803V9.0403C8.14286 8.95544 8.17286 8.87315 8.21571 8.79987C8.24723 8.74549 8.28918 8.69788 8.33915 8.65977C8.38912 8.62165 8.44613 8.59379 8.5069 8.57778C8.56768 8.56177 8.63101 8.55793 8.69328 8.56648C8.75554 8.57502 8.8155 8.59579 8.86971 8.62758L14.0391 11.5959ZM16.2377 8.13172C16.3829 8.21611 16.5034 8.33718 16.587 8.48281C16.6707 8.62844 16.7146 8.7935 16.7143 8.96144V15.8113C16.7143 15.9519 16.6367 16.0813 16.5133 16.1482L15.4286 16.7126V11.9434C15.4286 11.6066 15.2944 11.2954 15.0069 11.1219L10.2857 8.33144V5.62415C10.2857 5.53844 10.3239 5.45615 10.365 5.38287C10.3966 5.3285 10.4385 5.28088 10.4885 5.24273C10.5385 5.20458 10.5955 5.17665 10.6563 5.16053C10.717 5.14441 10.7804 5.14042 10.8427 5.14879C10.905 5.15716 10.9651 5.17772 11.0194 5.20929L16.2381 8.13129L16.2377 8.13172Z" fill="white"/>
</g>
<defs>
<clipPath id="clip0_31_8575">
<rect width="24" height="24" fill="white"/>
</clipPath>
</defs>
</svg>

<svg xmlns="http://www.w3.org/2000/svg" width="24" height="24" fill="none" viewBox="0 0 24 24"><g clip-path="url(#a)"><path fill="#00D395" d="M0 0h24v24H0z"/><path fill="#fff" d="M6.55 15.831a1.15 1.15 0 0 1-.55-.98v-2.23a.48.48 0 0 1 .189-.382.48.48 0 0 1 .53-.032l5.23 2.933a.96.96 0 0 1 .48.828v2.311a.59.59 0 0 1-.444.56.57.57 0 0 1-.435-.069L6.55 15.831m7.49-4.235c.293.172.531.486.531.828v4.689c0 .139-.132.267-.252.334l-.972.635c-.013.008-.046.014-.061.018v-2.604a.94.94 0 0 0-.449-.823L8.143 11.98V9.04c0-.085.03-.167.073-.24a.477.477 0 0 1 .654-.172zm2.198-3.464a.96.96 0 0 1 .476.83v6.85c0 .14-.077.27-.2.336l-1.085.565v-4.77c0-.336-.135-.648-.422-.821l-4.721-2.79V5.623c0-.086.038-.168.079-.241a.48.48 0 0 1 .654-.174z"/></g><defs><clipPath id="a"><path fill="#fff" d="M0 0h24v24H0z"/></clipPath></defs></svg>
